packages/gamut-icons/src/facebook.svg

<?xml version="1.0" encoding="utf-8"?>
<!-- Generated by IcoMoon.io -->
<!DOCTYPE svg PUBLIC "-//W3C//DTD SVG 1.1//EN" "http://www.w3.org/Graphics/SVG/1.1/DTD/svg11.dtd">
<svg version="1.1" xmlns="http://www.w3.org/2000/svg" xmlns:xlink="http://www.w3.org/1999/xlink" width="16" height="16" viewBox="0 0 16 16">
<path fill="#444" d="M6.1 16v-7.5h-2v-2.7h2v-2.3c0-1.8 1.2-3.5 3.9-3.5 1.1 0 1.9 0.1 1.9 0.1l-0.1 2.5c0 0-0.8 0-1.7 0-1 0-1.1 0.4-1.1 1.2v2h2.9l-0.1 2.7h-2.9v7.5h-2.8z"></path>
</svg>

<svg xmlns="http://www.w3.org/2000/svg" viewBox="0 0 16 16">
    <path fill="#444" d="M6.1 16V8.5h-2V5.8h2V3.5C6.1 1.7 7.3 0 10 0c1.1 0 1.9.1 1.9.1l-.1 2.5h-1.7C9.1 2.6 9 3 9 3.8v2h2.9l-.1 2.7H8.9V16H6.1z"/>
</svg>
